X: 8450
T: Cradling Arms Of Croaghan, The
R: waltz
M: 3/4
K: Dmajor
D4 (3FED|FA3 (3FED|G2 GA (3Bcd|c2d2eA|
f4 ed|dA4a|ba gf ed|c2d2eA|
f4 (3gfe|d A3 (3FED|G2 GA (3Bcd|c2d2e2|
fa (3fed Ad|eg ec Ac|eg ec Ac|1 d3A AF:|2 d3 A de||
f4 (4aged|dA3 (3FED|G2 GA (3Bcd|c2d2eA|
fa3 (3gfe|ed4a|ba gf ed|c2d2eA|
f4 (4aged|dA3 (3FED|G2 GA (3Bcd|c2d2eA|
fa (3fed Ad|eg ec Ac|eg ec Ac|d3 A de||
f4 (4aged|dA3 (3FED|G2 GA (3Bcd|c2d2eA|
fa3 (3gfe|ed4a|ba gf ed|c2d2eA|
f4 ed|=c4g2-|g B3 (3Bcd|c2d2eA|
[1 fa (3fed Ad|eg ec Ac|eg ec Ac|d3 A zF||
[2 fa (3fed Ad|eg ec Ac|"RIT"eg ec Ac|Hf6|
"Ending"fa (3fed Ad|eg ec Ac|EG Ae Hgc|Hd6||

